X: 52
T: Schottisch à Virmoux
R: schottisch
M: 4/4
L: 1/8
K: Dmaj
"D"FAGF A3F|"G"GFGA "D"B2A2|"D"AdAF "G"G2FE|1 "D"FAFD "A"E4:|2 "A"DAGE "D"D4:|
"D"d2A2 d3c|"G"BABc dedB|"D"A2D2 A2GF|1 "G"EFGA "A"BABc|2 "A"EFGA "D"D4:| 

